!!!SOCIAL_FUNCTION:	songs connected with the treatment of the sick
!!!PDT:	1932
!!!OTL: No_76_Two_Sides_of_the_Heavens.krn
!!!REG: Wisconsin
!!!LANG: Non-Tone
!!!LING_GROUP: Algonquin
**kern
*staff1
=1-
*clefF4
*k[f#]
*M3/4
2r
8r
8d\
=2!|:
8.d\L
16d\Jk
8.d\L
16d\Jk
8.e\L
16d\Jk
=3
2d\
8.c\L
16B\Jk
=4||
*M2/4
8.A\L
16A\Jk
8G\
8r
=5||
*M3/4
2A\
8.A\L
16A\Jk
=6||
*M2/4
8.G\L
16F#\Jk
8E\
8r
=7||
*M3/4
2G\
8.G\L
16F#\Jk
=8||
*M2/4
8.E\L
16D\Jk
4D\
=9||
*M3/4
2D\
8D\
8r
=10
16A\LK
8A\
16A\Jk
4A\
16B\LK
8B\
16B\Jk
=11
2A\
8.A\L
16A\Jk
=12||
*M2/4
8.G\L
16F#\Jk
4E\
=13||
*M3/4
2G\
8.G\L
16F#\Jk
=14||
*M2/4
8.E\L
16D\Jk
4D\
=15
4D\
8D\
16r
16d\
=16:|!
4D\
8D\
8r
==
*-
